client/public/img/game/shared/particles/casings/casing_9x39mm.svg

<?xml version="1.0" encoding="UTF-8" standalone="no"?>
<svg
   width="12"
   height="35"
   viewBox="0 0 12 35"
   fill="none"
   version="1.1"
   id="svg4"
   xmlns="http://www.w3.org/2000/svg"
   xmlns:svg="http://www.w3.org/2000/svg">
  <defs
     id="defs4" />
  <path
     d="M1.29688 30.6175L1.66359 8.19958L2.02608 6.11614V1.36588H10.0265V6.11614L10.389 8.19958L10.7557 30.6175L10.214 31.5342H1.83841L1.29688 30.6175Z"
     fill="#E1B54F"
     id="path1" />
  <path
     d="M1.29688 33.4088V32.3671H10.7557V33.4088L10.5474 33.6172H1.50522L1.29688 33.4088Z"
     fill="#E1B54F"
     id="path2" />
  <rect
     x="2.04297"
     y="32.3672"
     width="0.833378"
     height="7.96711"
     transform="rotate(-90 2.04297 32.3672)"
     fill="#DAA325"
     id="rect2" />
  <rect
     x="2.04297"
     y="32.3672"
     width="0.833378"
     height="7.96711"
     transform="rotate(-90 2.04297 32.3672)"
     fill="#DAA325"
     stroke="#57410F"
     stroke-width="0.999999"
     stroke-miterlimit="3.99393"
     id="rect3" />
  <path
     d="M1.29688 32.3671V33.4088L1.50522 33.6172H10.5474L10.7557 33.4088V32.3671H10.01V31.5337H10.214L10.7557 30.617L10.389 8.19915L10.0265 6.1157V1.36544H2.02608V6.1157L1.66359 8.19915L1.29688 30.617L1.83841 31.5337H2.04285V32.3671H1.29688Z"
     stroke="#57410F"
     stroke-width="2"
     stroke-miterlimit="3.99393"
     id="path3" />
  <path
     d="M10.3895 8.19922H1.66406M10.027 6.11577H2.02655"
     stroke="#57410F"
     stroke-width="2"
     stroke-miterlimit="3.99393"
     id="path4" />
</svg>

<svg xmlns="http://www.w3.org/2000/svg" width="12" height="35" fill="none"><path fill="#E1B54F" d="M1.297 30.618 1.664 8.2l.362-2.084v-4.75h8v4.75L10.39 8.2l.367 22.418-.542.916H1.838zM1.297 33.409v-1.042h9.459v1.042l-.209.208H1.505z"/><path fill="#DAA325" d="M2.043 32.367v-.833h7.967v.833z"/><path fill="#DAA325" stroke="#57410F" stroke-miterlimit="3.994" d="M2.043 32.367v-.833h7.967v.833z"/><path stroke="#57410F" stroke-miterlimit="3.994" stroke-width="2" d="M1.297 32.367v1.042l.208.208h9.042l.209-.208v-1.042h-.746v-.833h.204l.542-.917-.367-22.418-.362-2.083v-4.75h-8v4.75l-.363 2.083-.367 22.418.541.917h.205v.833zM10.39 8.2H1.663m8.363-2.084h-8"/></svg>
